X: 2693
T: Banks Of Inverness, The
R: polka
M: 2/4
K: Amajor
F|:E>F EC|EF AB|ce Bc/B/|AF dF|
E>F EC|EF AB|ce Bc/B/|1 A2 A2:|2 A2 AB||
ce ec|df fd|ce Bc/B/|AF dF|
ce ec|df fg|af g/f/e|f2 f2|
af ge|ef/e/ cB|ce Bc/B/|AF dF|
E>F EC|EF AB|ce Bc/B/|A2 A2|

